public/static/img/assets/stock_icon.svg

<svg width="24" height="24" viewBox="0 0 24 24" fill="none" xmlns="http://www.w3.org/2000/svg">
<path d="M1.89276 11.3793C1.70471 11.3811 1.52099 11.3229 1.36828 11.2131C1.21556 11.1034 1.10181 10.9478 1.04353 10.769C0.985259 10.5902 0.985495 10.3975 1.04421 10.2188C1.10292 10.0402 1.21706 9.88487 1.37004 9.7755L8.09544 4.8783C8.25917 4.75914 8.45145 4.68529 8.65285 4.6642C8.85425 4.64311 9.05765 4.67553 9.24252 4.75818L12.6679 6.28146L18.736 2.1129L13.9642 1.77234C13.8479 1.76411 13.7345 1.73306 13.6302 1.68097C13.526 1.62889 13.4331 1.55678 13.3567 1.46878C13.2025 1.29104 13.1252 1.05931 13.1418 0.82458C13.1584 0.589847 13.2676 0.371335 13.4454 0.217112C13.6231 0.0628899 13.8548 -0.0144091 14.0896 0.00221995L20.6315 0.47082C20.869 0.488657 21.0951 0.579637 21.2788 0.731246C21.4624 0.882854 21.5946 1.08764 21.6571 1.31745C21.7196 1.54725 21.7094 1.79078 21.6279 2.01454C21.5463 2.2383 21.3974 2.43129 21.2017 2.56698L13.386 7.93674C13.2248 8.04871 13.0375 8.11726 12.8421 8.13575C12.6468 8.15425 12.4499 8.12208 12.2706 8.04234L8.84652 6.5217L2.41284 11.209C2.26184 11.3193 2.07976 11.379 1.89276 11.3793ZM2.33892 23.7622C1.8492 23.7622 1.45188 23.3662 1.45188 22.8765V17.6638C1.46072 17.4347 1.55798 17.2178 1.72324 17.0588C1.8885 16.8998 2.10892 16.811 2.33826 16.811C2.56759 16.811 2.78801 16.8998 2.95327 17.0588C3.11854 17.2178 3.21579 17.4347 3.22464 17.6638V22.8765C3.22464 23.3649 2.82732 23.7622 2.33892 23.7622ZM8.51784 23.7622C8.02944 23.7622 7.63212 23.3662 7.63212 22.8765V12.8762C7.64449 12.6496 7.7432 12.4364 7.90795 12.2804C8.07269 12.1245 8.29095 12.0375 8.51784 12.0375C8.74472 12.0375 8.96298 12.1245 9.12773 12.2804C9.29247 12.4364 9.39118 12.6496 9.40356 12.8762V22.8765C9.40356 23.3649 9.00756 23.7622 8.51916 23.7622H8.51784ZM14.6981 23.7622C14.2084 23.7622 13.811 23.3662 13.811 22.8765V14.6621C13.8199 14.433 13.9171 14.2161 14.0824 14.0571C14.2477 13.8981 14.4681 13.8093 14.6974 13.8093C14.9268 13.8093 15.1472 13.8981 15.3124 14.0571C15.4777 14.2161 15.575 14.433 15.5838 14.6621V22.8765C15.5838 23.3649 15.1878 23.7622 14.6981 23.7622ZM20.877 23.7622C20.3886 23.7622 19.9913 23.3662 19.9913 22.8765V9.07854C20.0001 8.84938 20.0974 8.63254 20.2626 8.47354C20.4279 8.31453 20.6483 8.22571 20.8777 8.22571C21.107 8.22571 21.3274 8.31453 21.4927 8.47354C21.6579 8.63254 21.7552 8.84938 21.764 9.07854V22.8765C21.764 23.3649 21.3667 23.7622 20.877 23.7622Z" fill="#36394C"/>
</svg>

<svg width="24" height="24" viewBox="0 0 24 24" fill="none" xmlns="http://www.w3.org/2000/svg"><path d="M1.893 11.38a.884.884 0 0 1-.523-1.605l6.725-4.897a1.151 1.151 0 0 1 1.148-.12l3.425 1.523 6.068-4.168-4.772-.34a.887.887 0 1 1 .126-1.77l6.54.467a1.152 1.152 0 0 1 .57 2.096l-7.815 5.37a1.142 1.142 0 0 1-1.115.105l-3.424-1.52-6.434 4.687a.884.884 0 0 1-.52.17zm.446 12.382a.886.886 0 0 1-.887-.886v-5.212a.887.887 0 0 1 1.773 0v5.212a.887.887 0 0 1-.886.886zm6.179 0a.886.886 0 0 1-.886-.886v-10a.887.887 0 0 1 1.772 0v10a.886.886 0 0 1-.885.886h-.001zm6.18 0a.886.886 0 0 1-.887-.886v-8.214a.887.887 0 0 1 1.773 0v8.214a.886.886 0 0 1-.886.886zm6.179 0a.886.886 0 0 1-.886-.886V9.08a.887.887 0 0 1 1.773 0v13.797a.887.887 0 0 1-.887.886z" fill="#36394C"/></svg>
